X:322
T:Gaillarde
R:pavane
C:Claude Gervaise
H:XV eme siecle
O:France
Z:S. Piron
M:3/4
L:1/4
Q:1/4=220
K:G
BBB|B>dc|BAA|B2 z:|
|:dcc|B>BA|GFF|E2 z:|
|:BGA|F3|BGA|F3|BAG|F/2G/2 A/2G/2 F/2E/2|E2D|E2 z:||
